src/images/icons/icons_separatly/lock.svg

<svg width="24" height="24" viewBox="0 0 24 24" fill="none" xmlns="http://www.w3.org/2000/svg">
<path d="M17.8333 10.8333V7.33333C17.8333 4.11167 15.2217 1.5 12 1.5C8.77834 1.5 6.16667 4.11167 6.16667 7.33333V10.8333M7.1 22.5H16.9C18.8602 22.5 19.8403 22.5 20.589 22.1185C21.2475 21.783 21.783 21.2475 22.1185 20.589C22.5 19.8403 22.5 18.8602 22.5 16.9V16.4333C22.5 14.4731 22.5 13.4931 22.1185 12.7444C21.783 12.0858 21.2475 11.5504 20.589 11.2148C19.8403 10.8333 18.8602 10.8333 16.9 10.8333H7.1C5.13982 10.8333 4.15972 10.8333 3.41103 11.2148C2.75247 11.5504 2.21703 12.0858 1.88148 12.7444C1.5 13.4931 1.5 14.4731 1.5 16.4333V16.9C1.5 18.8602 1.5 19.8403 1.88148 20.589C2.21703 21.2475 2.75247 21.783 3.41103 22.1185C4.15972 22.5 5.13982 22.5 7.1 22.5Z" stroke="#111111" stroke-width="2" stroke-linecap="round" stroke-linejoin="round"/>
</svg>

<svg xmlns="http://www.w3.org/2000/svg" width="24" height="24" fill="none"><path stroke="#111" stroke-linecap="round" stroke-linejoin="round" stroke-width="2" d="M17.833 10.833v-3.5a5.833 5.833 0 1 0-11.666 0v3.5M7.1 22.5h9.8c1.96 0 2.94 0 3.689-.381a3.5 3.5 0 0 0 1.53-1.53c.381-.749.381-1.729.381-3.689v-.467c0-1.96 0-2.94-.381-3.689a3.5 3.5 0 0 0-1.53-1.53c-.749-.38-1.729-.38-3.689-.38H7.1c-1.96 0-2.94 0-3.689.38a3.5 3.5 0 0 0-1.53 1.53c-.381.75-.381 1.73-.381 3.69v.466c0 1.96 0 2.94.381 3.689a3.5 3.5 0 0 0 1.53 1.53c.749.381 1.729.381 3.689.381Z"/></svg>
